data/styles/default/light/symbols/escape_game.svg

<?xml version="1.0" encoding="UTF-8"?>
<svg width="18px" height="18px" viewBox="0 0 18 18" version="1.1" xmlns="http://www.w3.org/2000/svg" xmlns:xlink="http://www.w3.org/1999/xlink">
    <title>escape_game</title>
    <g id="escape_game" stroke="none" fill="none">
        <circle id="Oval" fill="#FFFFFF" fill-rule="nonzero" opacity="0.6" cx="9" cy="9" r="9"></circle>
        <circle id="Oval" fill="#EB785D" fill-rule="nonzero" cx="9" cy="9" r="8.25"></circle>
        <path d="M6.544,4.525 L6.543,5.199 L7.894,5.2 L7.894,6.55 L6.543,6.55 L6.54384181,9.2696041 C7.56205461,9.56229277 8.307,10.5006507 8.307,11.613 C8.307,12.9594702 7.21547022,14.051 5.869,14.051 C4.52252978,14.051 3.431,12.9594702 3.431,11.613 C3.431,10.5010171 4.17545473,9.56291094 5.19315214,9.26989353 L5.194,4.525 L6.544,4.525 Z M5.869,10.675 C5.3509569,10.675 4.931,11.0949569 4.931,11.613 C4.931,12.1310431 5.3509569,12.551 5.869,12.551 C6.3870431,12.551 6.807,12.1310431 6.807,11.613 C6.807,11.0949569 6.3870431,10.675 5.869,10.675 Z M12.506,11.275 L10.931,11.275 L10.925,10.868 C10.925,10.3653333 11.0083333,9.952 11.175,9.628 C11.341,9.304 11.633,8.893 12.132,8.487 L12.5637778,8.12833333 C12.807037,7.92033333 12.9611111,7.77455556 13.026,7.691 C13.176,7.493 13.251,7.274 13.251,7.034 C13.251,6.70266667 13.117,6.41933333 12.849,6.184 C12.585,5.94466667 12.2283333,5.825 11.779,5.825 C11.3456667,5.825 10.9833333,5.94866667 10.692,6.196 C10.4,6.443 10.246,6.82 10.137,7.326 L8.569,7.132 C8.61366667,6.40666667 8.92133333,5.791 9.492,5.285 C10.068,4.778 10.775,4.525 11.706,4.525 C12.687,4.525 13.421,4.782 13.999,5.297 C14.579,5.807 14.869,6.40266667 14.869,7.084 C14.869,7.46 14.7616667,7.81633333 14.547,8.153 C14.2678649,8.60277864 13.927713,9.01103812 13.5366594,9.36629677 L13.296,9.573 C12.936,9.873 12.711,10.1143333 12.621,10.297 C12.537,10.4783333 12.4986667,10.8043333 12.506,11.275 Z M10.819,13.525 L10.819,11.725 L12.619,11.725 L12.619,13.525 L10.819,13.525 Z" id="Shape" fill="#FFFFFF" fill-rule="evenodd"></path>
    </g>
</svg>

<svg xmlns="http://www.w3.org/2000/svg" width="18" height="18"><circle cx="9" cy="9" r="9" fill="#fff" opacity=".6"/><circle cx="9" cy="9" r="8.25" fill="#7f5933"/><path fill="#fff" fill-rule="evenodd" d="M5.194 4.525h1.35v5.4h-1.35z" style="stroke-width:.9"/><path fill="#fff" fill-rule="evenodd" d="M5.194 5.2h2.7v1.35h-2.7z" style="stroke-width:.9"/><circle cx="5.869" cy="11.613" r="1.688" fill="none" stroke="#fff" stroke-width="1.5"/><path fill="#fff" fill-rule="evenodd" d="M12.506 11.275h-1.575l-.006-.407q0-.754.25-1.24c.166-.324.458-.735.957-1.141q.748-.608.894-.796.225-.297.225-.657 0-.497-.402-.85-.396-.359-1.07-.359-.65 0-1.087.371c-.292.247-.446.624-.555 1.13l-1.568-.194q.067-1.088.923-1.847c.576-.507 1.283-.76 2.214-.76.981 0 1.715.257 2.293.772q.87.765.87 1.787 0 .564-.322 1.069a5.7 5.7 0 0 1-1.251 1.42q-.54.45-.675.724-.126.272-.115.978m-1.687 2.25v-1.8h1.8v1.8z" style="stroke-width:.9"/></svg>
